public/library/lighter-text-dark.svg

<svg width="106" height="42" viewBox="0 0 106 42" fill="none" xmlns="http://www.w3.org/2000/svg">
<g clip-path="url(#clip0_16627_6832)">
<path d="M28.5863 30.3525V11.3589H30.8881V28.3104H39.7227V30.3507L28.5863 30.3525ZM41.9444 30.3525V16.106H44.134V30.3507L41.9444 30.3525ZM43.057 13.7324C42.6456 13.7383 42.2482 13.5819 41.9514 13.2972C41.8059 13.1642 41.6905 13.0019 41.6126 12.8211C41.5346 12.6403 41.4958 12.445 41.4988 12.2481C41.4988 11.84 41.6502 11.4909 41.953 11.2008C42.2493 10.9158 42.646 10.7588 43.057 10.7638C43.4824 10.7638 43.8476 10.9094 44.1527 11.2008C44.4611 11.4909 44.6154 11.84 44.6154 12.2481C44.6154 12.6562 44.4611 13.0059 44.1527 13.2972C44.008 13.4385 43.8365 13.5497 43.6484 13.6244C43.4604 13.6991 43.2594 13.7358 43.057 13.7324ZM52.8528 35.9905C51.7946 35.9905 50.885 35.8545 50.124 35.5825C49.4287 35.3533 48.7833 34.9945 48.222 34.5249C47.7514 34.1279 47.3469 33.6584 47.0244 33.1341L48.7698 31.9099C48.9672 32.1694 49.2178 32.4663 49.5217 32.8008C49.8247 33.1408 50.2385 33.4344 50.7637 33.6815C51.2968 33.9343 51.9931 34.0606 52.8528 34.0606C54.0029 34.0606 54.9522 33.7829 55.7006 33.2276C56.4492 32.671 56.8235 31.7987 56.8235 30.6108V27.7187H56.6381C56.4782 27.9794 56.2496 28.3013 55.9524 28.6845C55.661 29.0619 55.2402 29.3985 54.6902 29.6944C54.1458 29.9857 53.4097 30.1315 52.4819 30.1315C51.3309 30.1315 50.2975 29.8593 49.3824 29.3153C48.4728 28.7711 47.7519 27.9794 47.2199 26.9401C46.6938 25.9029 46.4307 24.6419 46.4307 23.1569C46.4307 21.6981 46.6874 20.4275 47.2013 19.345C47.7151 18.2568 48.4296 17.4158 49.3449 16.8218C50.2602 16.2222 51.3182 15.9224 52.5194 15.9224C53.4471 15.9224 54.1833 16.0771 54.7276 16.3865C55.2765 16.6892 55.6973 17.0349 55.9899 17.4237C56.2859 17.8091 56.5146 18.1248 56.6756 18.3707H56.8984V16.1094H59.0147V30.7623C59.0147 31.9864 58.7363 32.9816 58.1795 33.7479C57.6282 34.5198 56.8853 35.0854 55.9508 35.4447C54.9622 35.822 53.9109 36.0062 52.8528 35.9905ZM52.7779 28.1643C53.657 28.1643 54.3999 27.9636 55.0066 27.5624C55.6122 27.1598 56.0728 26.5818 56.388 25.828C56.7033 25.0731 56.861 24.1703 56.861 23.1195C56.861 22.0937 56.7061 21.188 56.3965 20.4025C56.0881 19.617 55.6303 19.0015 55.0236 18.5561C54.418 18.1106 53.6694 17.8884 52.7779 17.8896C51.8502 17.8896 51.0773 18.1242 50.4592 18.5935C49.8467 19.0627 49.3857 19.6935 49.0761 20.4859C48.7641 21.3284 48.61 22.2212 48.6219 23.1195C48.6219 24.108 48.776 24.983 49.0846 25.7448C49.401 26.4984 49.8655 27.0918 50.4779 27.525C51.0959 27.9511 51.8626 28.1643 52.7779 28.1643ZM64.1679 21.7831V30.3525H61.9783V11.3589H64.1679V18.3316H64.3532C64.6867 17.596 65.1879 17.0122 65.8571 16.5804C66.5308 16.1406 67.4274 15.9207 68.5469 15.9207C69.5188 15.9207 70.3695 16.1156 71.0987 16.5056C71.829 16.8887 72.3956 17.4792 72.7982 18.2772C73.2064 19.0684 73.4106 20.0761 73.4106 21.3003V30.3507H71.2194V21.4482C71.2194 20.317 70.9258 19.4419 70.3382 18.823C69.7564 18.1996 68.9494 17.8878 67.9173 17.8878C67.1994 17.8878 66.5558 18.0392 65.9864 18.3418C65.4239 18.6445 64.9787 19.0865 64.651 19.668C64.3289 20.2495 64.1679 20.9545 64.1679 21.7831ZM82.5701 16.106V17.961H75.1833V16.1077L82.5701 16.106ZM77.3371 12.6936H79.5267V26.2702C79.5267 26.8891 79.6162 27.3532 79.7955 27.6626C79.9533 27.9417 80.2026 28.1579 80.5015 28.2748C80.7907 28.3734 81.0968 28.4226 81.4201 28.4226C81.6605 28.4226 81.8585 28.4102 82.0139 28.3853L82.3848 28.3121L82.8304 30.2776C82.6266 30.3463 82.4187 30.4019 82.2077 30.4442C81.8754 30.5126 81.5366 30.5439 81.1973 30.5377C80.5689 30.5352 79.9484 30.3991 79.377 30.1382C78.7879 29.8733 78.2817 29.4538 77.9122 28.9243C77.5288 28.3801 77.3371 27.6937 77.3371 26.8652V12.6936ZM90.6425 30.6482C89.2691 30.6482 88.0839 30.3456 87.0869 29.7403C86.0942 29.123 85.299 28.2344 84.7954 27.1797C84.2645 26.0802 83.9986 24.8006 83.9975 23.3405C83.9975 21.8817 84.264 20.5952 84.797 19.481C85.3347 18.3634 86.0832 17.4923 87.0427 16.8677C88.0067 16.2364 89.1324 15.9207 90.4196 15.9207C91.1615 15.9207 91.8941 16.0442 92.6178 16.2913C93.3424 16.5396 94.0014 16.942 94.5945 17.4985C95.1888 18.0471 95.6623 18.7765 96.0151 19.6867C96.3666 20.5947 96.5424 21.7135 96.5424 23.043V23.9715H85.5575V22.079H94.3171C94.3171 21.2742 94.1561 20.5573 93.834 19.9282C93.5325 19.3124 93.0631 18.7944 92.4798 18.4336C91.8981 18.0698 91.2114 17.8878 90.4196 17.8878C89.5464 17.8878 88.7916 18.1038 88.1553 18.5357C87.5235 18.963 87.0376 19.5195 86.6974 20.2053C86.3572 20.8922 86.1869 21.6278 86.1869 22.4122V23.6738C86.1869 24.7506 86.373 25.6631 86.745 26.4113C87.1226 27.1513 87.6455 27.7169 88.3135 28.1081C88.9804 28.4912 89.7568 28.6828 90.6425 28.6828C91.2176 28.6828 91.7371 28.6024 92.2009 28.4414C92.6705 28.2748 93.0759 28.027 93.4173 27.6984C93.7575 27.3651 94.0201 26.9514 94.2049 26.4572L96.3214 27.0506C96.0978 27.7669 95.7235 28.3971 95.1985 28.9413C94.6722 29.4796 94.0224 29.9002 93.2488 30.2028C92.4143 30.5083 91.5311 30.6592 90.6425 30.6482ZM98.8306 30.3525V16.106H100.945V18.2585H101.093C101.354 17.5535 101.825 16.9811 102.505 16.5413C103.186 16.1026 103.952 15.8833 104.805 15.8833C104.966 15.8833 105.168 15.8867 105.409 15.8935C105.651 15.8991 105.833 15.9082 105.957 15.9207V18.148C105.788 18.1132 105.618 18.0849 105.447 18.063C105.173 18.0191 104.897 17.9975 104.62 17.9984C103.928 17.9984 103.31 18.1435 102.766 18.4336C102.227 18.7182 101.8 19.1143 101.484 19.6221C101.175 20.1209 101.02 20.6927 101.02 21.3377V30.3525H98.8306Z" fill="#FFFFFF"/>
<path d="M0 37.9982L8.14895 31.0511V4L0 11.3264V37.9982Z" fill="#FFFFFF"/>
<path d="M10.6328 38.0001L18.7817 31.0665V20.292L10.6328 27.5979V38.0001Z" fill="#FFFFFF"/>
</g>
<defs>
<clipPath id="clip0_16627_6832">
<rect width="106" height="34" fill="white" transform="translate(0 4)"/>
</clipPath>
</defs>
</svg>

<svg xmlns="http://www.w3.org/2000/svg" width="106" height="42" fill="none" viewBox="0 0 106 42"><g fill="#fff" clip-path="url(#a)"><path d="M28.586 30.353V11.359h2.302V28.31h8.835v2.04zm13.358 0V16.106h2.19v14.245zm1.113-16.62a1.57 1.57 0 0 1-1.106-.436 1.4 1.4 0 0 1-.452-1.049q0-.612.454-1.047a1.57 1.57 0 0 1 1.104-.437q.637 0 1.096.437.462.435.462 1.047t-.462 1.05a1.53 1.53 0 0 1-1.096.434m9.796 22.257q-1.587 0-2.729-.407a5.8 5.8 0 0 1-1.902-1.058 5.8 5.8 0 0 1-1.198-1.39l1.746-1.225q.296.39.752.89.454.51 1.242.882.8.379 2.089.379 1.725 0 2.848-.833 1.122-.836 1.123-2.617v-2.892h-.186q-.24.39-.686.965-.437.566-1.262 1.01-.816.438-2.208.438-1.726 0-3.1-.817-1.364-.816-2.162-2.375-.79-1.555-.79-3.783 0-2.189.771-3.812.771-1.633 2.144-2.523 1.372-.9 3.174-.9 1.392 0 2.209.465.823.453 1.262 1.037.444.577.686.947h.222v-2.262h2.117v14.653q0 1.836-.836 2.986-.826 1.157-2.228 1.697a8.3 8.3 0 0 1-3.098.545m-.075-7.826q1.319 0 2.229-.602.908-.603 1.381-1.734.473-1.133.473-2.709 0-1.538-.464-2.716t-1.373-1.847q-.91-.668-2.246-.666-1.391 0-2.319.703-.918.704-1.383 1.893a7.3 7.3 0 0 0-.454 2.633q0 1.483.463 2.626.474 1.13 1.393 1.78.927.64 2.3.64m11.39-6.38v8.569h-2.19V11.359h2.19v6.973h.185a4 4 0 0 1 1.504-1.752q1.01-.66 2.69-.66 1.458 0 2.552.586 1.095.574 1.7 1.771.611 1.188.612 3.023v9.05h-2.192v-8.902q0-1.697-.88-2.625-.874-.935-2.422-.935-1.077 0-1.93.454a3.3 3.3 0 0 0-1.336 1.326q-.483.873-.483 2.115m18.402-5.678v1.855h-7.387v-1.853zm-5.233-3.412h2.19V26.27q0 .929.269 1.393c.157.279.407.495.705.612q.435.148.92.148.36 0 .593-.038l.37-.073.446 1.966a5 5 0 0 1-.622.166q-.5.103-1.01.094a4.4 4.4 0 0 1-1.821-.4 3.57 3.57 0 0 1-1.465-1.214q-.575-.816-.575-2.059zm13.305 17.954q-2.06 0-3.555-.908a6.1 6.1 0 0 1-2.292-2.56q-.795-1.65-.797-3.84 0-2.187.799-3.859.806-1.677 2.246-2.613 1.446-.947 3.377-.947a6.8 6.8 0 0 1 2.198.37q1.086.373 1.977 1.207.89.824 1.42 2.189.528 1.361.527 3.356v.928H85.558V22.08h8.76q0-1.208-.484-2.15a3.64 3.64 0 0 0-1.354-1.495q-.873-.546-2.06-.546-1.31 0-2.265.648a4.3 4.3 0 0 0-1.458 1.67 4.9 4.9 0 0 0-.51 2.206v1.262q0 1.616.558 2.737.566 1.11 1.569 1.697 1 .575 2.329.575.862 0 1.558-.242a3.3 3.3 0 0 0 1.216-.743q.51-.5.788-1.24l2.116.593a4.7 4.7 0 0 1-1.123 1.89q-.789.809-1.95 1.262a7.3 7.3 0 0 1-2.606.445m8.189-.296V16.106h2.114v2.153h.148q.392-1.058 1.412-1.718 1.021-.657 2.3-.658.242 0 .604.01.363.009.548.028v2.227a7 7 0 0 0-.51-.085 5 5 0 0 0-.827-.065q-1.038 0-1.854.436a3.3 3.3 0 0 0-1.282 1.188q-.464.748-.464 1.716v9.014zM0 37.998l8.149-6.947V4L0 11.326zM10.633 38l8.149-6.933V20.292l-8.15 7.306z"/></g><defs><clipPath id="a"><path fill="#fff" d="M0 4h106v34H0z"/></clipPath></defs></svg>
